X:14
T:The Cape Breton Irish
R:jig
C:Paul S. Cranford
O:Cape Breton Island
S:http://www.cranfordpub.com
D:currently unrecorded
B:currently unpublished in book form
Z:psc
H:                                                        copyrights Cranford Publications, SOCAN
L:1/8
Q:300
M:6/8
K:Amin
G|EAA BcB|AGE c2 d|edd BdB|cdc BAG|
EAA BcB|AGE c2 d|edd Bge|dBG A2:|
|:e|aee dBB|cge dBG|aee d(B/c/d)|cBA e2 g|
[1aee dBB|cge dBG|EAA Bed|BAG A2:|
[2aba ged|cge d(B/c/d)|eAB cge|dBG A2|]
